icon-svg/traccar.svg

<svg xmlns="http://www.w3.org/2000/svg" viewBox="0 0 24 24"><path fill="#44739e" d="m13.729 9.301-.98 1.245a2.4 2.4 0 0 1 .612.667 2.4 2.4 0 0 1 .271.863l1.569-.226a3.83 3.83 0 0 0-1.472-2.549m1.894-2.507-.98 1.246a5.26 5.26 0 0 1 2.108 3.654l1.569-.226a7 7 0 0 0-2.699-4.674Zm5.036.207A9.999 9.999 0 1 0 17 20.659a10 10 0 0 0 3.659-13.658M16.411 19.64A8.821 8.821 0 1 1 19.64 7.59a8.82 8.82 0 0 1-3.229 12.05m-5.089-8.032a.786.786 0 0 0-.786.784.785.785 0 0 0 1.57 0 .786.786 0 0 0-.784-.784m-3.61-.756a3.14 3.14 0 1 0 3.14 5.437l-1.57-2.719Z"/></svg>

<?xml version="1.0" encoding="UTF-8"?>
<svg width="24px" fill="#44739e" height="24px" viewBox="0 0 24 24" version="1.1" xmlns="http://www.w3.org/2000/svg" xmlns:xlink="http://www.w3.org/1999/xlink">
            <path d="m 13.728,9.3 v 0 l -0.98,1.245 a 2.431,2.431 0 0 1 0.612,0.667 2.418,2.418 0 0 1 0.271,0.863 L 15.2,11.849 A 3.829,3.829 0 0 0 13.728,9.3 Z m 1.894,-2.507 -0.98,1.246 a 5.257,5.257 0 0 1 2.109,3.654 L 18.32,11.467 A 7.008,7.008 0 0 0 15.62,6.793 Z M 20.659,7 A 10,10 0 1 0 17,20.659 10,10 0 0 0 20.659,7 Z M 16.411,19.64 A 8.822,8.822 0 1 1 19.64,7.589 8.822,8.822 0 0 1 16.411,19.64 Z m -5.09,-8.033 a 0.786,0.786 0 0 0 -0.786,0.785 v 0 a 0.785,0.785 0 0 0 1.57,0 v 0 a 0.786,0.786 0 0 0 -0.784,-0.785 z m -3.61,-0.756 a 3.14,3.14 0 1 0 3.14,5.438 L 9.281,13.57 Z"/>

</svg>
